www/assets/icons/table_restaurant.svg

<svg width="24" height="24" viewBox="0 0 24 24" xmlns="http://www.w3.org/2000/svg" fill='currentColor'><path d="M21.96 9.73L20.53 4.73C20.41 4.3 20.02 4 19.57 4H4.43003C3.98003 4 3.59003 4.3 3.47003 4.73L2.04003 9.73C1.86003 10.36 2.34003 11 3.00003 11H5.20003L4.00003 20H6.00003L6.67003 15H17.34L18 20H20L18.8 11H21C21.66 11 22.14 10.36 21.96 9.73ZM6.93003 13L7.20003 11H16.8L17.07 13H6.93003Z"/></svg>

<svg xmlns="http://www.w3.org/2000/svg" width="24" height="24" viewBox="0 0 24 24" fill='currentColor'><path d="m21.96 9.73-1.43-5a.996.996 0 0 0-.96-.73H4.43c-.45 0-.84.3-.96.73l-1.43 5c-.18.63.3 1.27.96 1.27h2.2L4 20h2l.67-5h10.67l.66 5h2l-1.2-9H21c.66 0 1.14-.64.96-1.27M6.93 13l.27-2h9.6l.27 2z"/></svg>
